build/img/mail-form.svg

<svg width="16" height="12" fill="none" xmlns="http://www.w3.org/2000/svg"><path d="M8 8c-.3 0-.5-.1-1-.3L0 4v7c0 .5.5 1 1 1h14c.5 0 1-.5 1-1V4L9 7.7c-.5.2-.7.3-1 .3Zm7-8H1C.5 0 0 .5 0 1v.8L8 6l8-4.2V1c0-.5-.5-1-1-1Z" fill="#000"/></svg>

<svg width="16" height="12" viewBox="0 0 16 12" fill="none" xmlns="http://www.w3.org/2000/svg">
<path d="M8 8C7.7 8 7.5 7.9 7 7.7L0 4V11C0 11.5 0.5 12 1 12H15C15.5 12 16 11.5 16 11V4L9 7.7C8.5 7.9 8.3 8 8 8ZM15 0H1C0.5 0 0 0.5 0 1V1.8L8 6L16 1.8V1C16 0.5 15.5 0 15 0Z" fill="black"/>
</svg>
